X:1
T: Joe Cant's Reel
C:
R:Reel
Q: 232
K:Am
M:4/4
L:1/8
|:AB cA e2 dB|G2 BG dG BG|AB cA e2 dB|cA BG A2 A2|
AB cA e2 dB|G2 BG dG BG|AB cA e2 dB|cA BG A2 A2|
A2 a2 e2 ed|cd e^f g2 fe|A2 a2 e2 ed|cA BG A2 A2|
A2 a2 e2 ed|cd e^f g2 fe|ag ^fe gf ed|cB A^G A2:|
